icons/lines/message-search.svg

<svg xmlns="http://www.w3.org/2000/svg" width="24" height="24" viewBox="0 0 24 24" fill="none" stroke="currentColor" stroke-width="2" stroke-linecap="round" stroke-linejoin="round" >
  <path d="M13.2 21.37C12.54 22.25 11.46 22.25 10.8 21.37L9.29999 19.37C9.12999 19.15 8.77 18.97 8.5 18.97H8C4 18.97 2 17.97 2 12.97V7.97C2 3.97 4 1.97 8 1.97H16C20 1.97 22 3.97 22 7.97V12.97" stroke-miterlimit="10"/>
  <path d="M18.2 21.4C19.9673 21.4 21.4 19.9673 21.4 18.2C21.4 16.4327 19.9673 15 18.2 15C16.4327 15 15 16.4327 15 18.2C15 19.9673 16.4327 21.4 18.2 21.4Z"/>
  <path d="M22 22L21 21"/>
  <path d="M15.9965 11H16.0054"/>
  <path d="M11.9955 11H12.0045"/>
  <path d="M7.99451 11H8.00349"/>
  </svg>

<svg xmlns="http://www.w3.org/2000/svg" width="24" height="24" viewBox="0 0 24 24" fill="none" stroke="currentColor" stroke-width="2" stroke-linecap="round" stroke-linejoin="round">
  <path d="M11.996 11h.01" />
  <path d="M13.2 21.37c-.66.88-1.74.88-2.4 0l-1.5-2a1.15 1.15 0 0 0-.8-.4H8c-4 0-6-1-6-6v-5q0-6 6-6h8q6 0 6 6v5" />
  <path d="M15.997 11h.01" />
  <path d="m22 22-1-1" />
  <path d="M7.995 11h.01" />
  <circle cx="18.2" cy="18.2" r="3.2" />
</svg>
